X: 27
T: Cliffs Of Moher, The
Z: Em G
S: https://thesession.org/tunes/12#setting53260
R: jig
M: 6/8
L: 1/8
K: Ador
|:eaa bag|eaf ged|c2A BAG|EFG ABd|
eaa bag|eaf ged|c2A BAG|EFG A3:|
|:e2e dBA|e2e dBA|GAB dBA|GAB dBd|
[1 e2e dBA|ege dBA|GAB dBA|EFG A3:|
[2 e2e d2d|c2c BAG|EFG AGE|DCB, A,3||

